X: 145
T:Killing Jamey(). JaW.145
T:aka. JaW.145
M:6/8
Q:120
S:James Winder Ms, Lancashire, 1835-41
R:Jig
O:England
A:Wyresdale,Lancashire
H:1/8
Z:vmp.Chris Partington, Aug 2004
K:C
cee dff|cee f2g|ecc fdg|ecc "cr"c3:|!
ceg c'2b|aff f3|efa d'2c'|bgg g2c|!
ceg c'2b|aff g2f|ecc fdg|ecc c3|]
